src/components/Icon/svg-icon/main/mail-personal.svg

<svg xmlns="http://www.w3.org/2000/svg" width="24" height="24"><g fill="none" fill-rule="evenodd"><path d="M0 0h24v24H0z"/><path fill="#677078" fill-rule="nonzero" d="M21 8V7l-3 2-3-2v1l3 2 3-2zm1-5H2C.9 3 0 3.9 0 5v14c0 1.1.9 2 2 2h20c1.1 0 1.99-.9 1.99-2L24 5c0-1.1-.9-2-2-2zM8 6c1.66 0 3 1.34 3 3s-1.34 3-3 3-3-1.34-3-3 1.34-3 3-3zm6 12H2v-1c0-2 4-3.1 6-3.1s6 1.1 6 3.1v1zm8-6h-8V6h8v6z"/><path d="M0 0h24v24H0z"/></g></svg>

<svg xmlns="http://www.w3.org/2000/svg" width="24" height="24" viewBox="0 0 24 24">
  <g fill="none" fill-rule="evenodd">
    <polygon points="0 0 24 0 24 24 0 24"/>
    <path fill="#677078" fill-rule="nonzero" d="M21,8 L21,7 L18,9 L15,7 L15,8 L18,10 L21,8 Z M22,3 L2,3 C0.9,3 0,3.9 0,5 L0,19 C0,20.1 0.9,21 2,21 L22,21 C23.1,21 23.99,20.1 23.99,19 L24,5 C24,3.9 23.1,3 22,3 Z M8,6 C9.66,6 11,7.34 11,9 C11,10.66 9.66,12 8,12 C6.34,12 5,10.66 5,9 C5,7.34 6.34,6 8,6 Z M14,18 L2,18 L2,17 C2,15 6,13.9 8,13.9 C10,13.9 14,15 14,17 L14,18 Z M22,12 L14,12 L14,6 L22,6 L22,12 Z"/>
    <polygon points="0 0 24 0 24 24 0 24"/>
  </g>
</svg>
